NotoEmoji/emoji_u1f320.svg

<svg enable-background="new 0 0 128 128" viewBox="0 0 128 128" xmlns="http://www.w3.org/2000/svg" xmlns:xlink="http://www.w3.org/1999/xlink"><linearGradient id="a" gradientUnits="userSpaceOnUse" x1="64" x2="64" y1="155.5578" y2="-.2438"><stop offset="0" stop-color="#3367d6"/><stop offset=".5213" stop-color="#352893"/><stop offset="1" stop-color="#1a237e"/></linearGradient><linearGradient id="b" gradientUnits="userSpaceOnUse" x1="46.6245" x2="124.4939" y1="85.5401" y2="-3.7049"><stop offset="0" stop-color="#fff7af"/><stop offset="1" stop-color="#fff7af" stop-opacity=".1"/></linearGradient><linearGradient id="c" gradientUnits="userSpaceOnUse" x1="47.1363" x2="120.8935" y1="81.18" y2="13.3801"><stop offset=".2537" stop-color="#fffde7"/><stop offset="1" stop-color="#fffde7" stop-opacity="0"/></linearGradient><linearGradient id="d" gradientUnits="userSpaceOnUse" x1="85.6579" x2="68.6853" y1="12.3247" y2="95.5714"><stop offset=".005221225" stop-color="#4453ab" stop-opacity="0"/><stop offset="1" stop-color="#3949ab"/></linearGradient><path d="m116 124h-104c-4.42 0-8-3.58-8-8v-104c0-4.42 3.58-8 8-8h104c4.42 0 8 3.58 8 8v104c0 4.42-3.58 8-8 8z" fill="url(#a)"/><path d="m34.15 69.14 40.47 22.92c13.26-34.44 32.93-57.49 49.38-71.98v-8.08c0-3-1.65-5.61-4.1-6.98-29.9 7.41-70.83 24.6-85.75 64.12z" fill="url(#b)"/><path d="m114.43 12.88c-52.02 17.41-73.43 60.68-73.43 60.68l20.23 16.64s4.5-20.25 18.05-41.77c10.98-17.43 28.3-28.56 35.99-33.86.91-.62.21-2.04-.84-1.69z" fill="url(#c)"/><path d="m75.24 67.39c.3-5.04 3.11-17.44 3.11-17.44.73-4.1-3-5.1-5.53-3.82-7.19 3.64-14.83 8.76-19.53 9.16-5.6.48-6.26-5.54-6.18-8.76-5.28 6.58-9.73 14.07-12.96 22.61l40.47 22.92c12.84-33.36 31.71-56.03 47.83-70.59l1.55-1.38v-2.36c-23.11 16.34-34.65 35-41.37 44.77-4.25 6.17-7.63 8.9-7.39 4.89z" fill="url(#d)"/><path d="m29.58 49.88 16.78 10.82c1.29.83 2.92.89 4.27.17l17.25-9.32c2.02-.95 4.25.82 3.78 3l-5.46 18.43c-.44 1.49-.02 3.1 1.09 4.19l14.61 14.33c1.53 1.63.53 4.3-1.69 4.52l-19.72 1.09c-1.51.08-2.87.98-3.54 2.34l-8.71 17.73c-1.07 1.96-3.92 1.83-4.82-.21l-7.48-19.05c-.57-1.45-1.89-2.46-3.43-2.64l-19.09-2.18c-2.19-.42-2.95-3.16-1.29-4.65l15.32-12.24c1.2-.96 1.78-2.49 1.52-4l-3.41-19.67c-.29-2.21 2.09-3.78 4.02-2.66z" fill="#fdd835"/><path d="m39.79 66.36-8.57-10.49c-.46-.6-1.3-1.58-.29-2.25.8-.53 2.32.84 2.32.84l9.36 6.77c3.56 2.58 3.8 4.11 3.03 5.62-.9 1.75-3.4 2.51-5.85-.49z" fill="#ffff8d"/><path d="m64.23 72.85 4.71-14.05c.22-.72.66-1.94-.52-2.21-.93-.21-1.88 1.6-1.88 1.6l-6.32 8.98c-1.96 2.56-2.79 4.98-1.85 6.72 1.26 2.31 4.33 2.7 5.86-1.04z" fill="#f4b400"/><g clip-rule="evenodd" fill-rule="evenodd"><path d="m118.09 63.75c-3.13-1.04-5.56-3.6-6.45-6.78-.12-.44-.71-.45-.85-.02-1.03 3.15-3.57 5.59-6.76 6.49-.41.12-.42.68-.02.81 3.14 1.04 5.57 3.59 6.45 6.76.12.44.71.45.85.02 1.03-3.14 3.57-5.58 6.75-6.47.42-.11.43-.67.03-.81z" fill="#fff176"/><path d="m42.71 30.83c-2.26-.75-4.01-2.59-4.64-4.88-.09-.31-.51-.32-.61-.01-.74 2.27-2.57 4.02-4.87 4.67-.29.08-.3.49-.01.59 2.26.75 4.01 2.59 4.65 4.87.09.32.51.33.61.01.74-2.26 2.57-4.02 4.86-4.66.29-.09.3-.5.01-.59z" fill="#fff9c4"/><circle cx="12.36" cy="41.85" fill="#7baaf7" r="2.41"/><circle cx="59.23" cy="15.07" fill="#5c6bc0" r="4.77"/><circle cx="109.42" cy="94.45" fill="#7986cb" r="3.19"/><circle cx="98.9" cy="80.52" fill="#fff176" r="2.41"/><circle cx="19.67" cy="17.48" fill="#fff176" r="2.41"/><circle cx="69.65" cy="113.47" fill="#7baaf7" r="2.41"/></g></svg>

<?xml version="1.0" encoding="utf-8"?>
<!-- Generator: Adobe Illustrator 24.1.2, SVG Export Plug-In . SVG Version: 6.00 Build 0)  -->
<svg version="1.1" id="Layer_3" xmlns="http://www.w3.org/2000/svg" xmlns:xlink="http://www.w3.org/1999/xlink" x="0px" y="0px"
	 viewBox="0 0 128 128" style="enable-background:new 0 0 128 128;" xml:space="preserve">
<g>
	<linearGradient id="SVGID_1_" gradientUnits="userSpaceOnUse" x1="64" y1="155.5578" x2="64" y2="-0.2438">
		<stop  offset="0" style="stop-color:#3367D6"/>
		<stop  offset="0.5213" style="stop-color:#352893"/>
		<stop  offset="1" style="stop-color:#1A237E"/>
	</linearGradient>
	<path style="fill:url(#SVGID_1_);" d="M116,124H12c-4.42,0-8-3.58-8-8V12c0-4.42,3.58-8,8-8h104c4.42,0,8,3.58,8,8v104
		C124,120.42,120.42,124,116,124z"/>
	<g>
		<linearGradient id="SVGID_2_" gradientUnits="userSpaceOnUse" x1="46.6245" y1="85.5401" x2="124.4939" y2="-3.7049">
			<stop  offset="0" style="stop-color:#FFF7AF"/>
			<stop  offset="1" style="stop-color:#FFF7AF;stop-opacity:0.1"/>
		</linearGradient>
		<path style="fill:url(#SVGID_2_);" d="M34.15,69.14l40.47,22.92C87.88,57.62,107.55,34.57,124,20.08V12c0-3-1.65-5.61-4.1-6.98
			C90,12.43,49.07,29.62,34.15,69.14z"/>
		<linearGradient id="SVGID_3_" gradientUnits="userSpaceOnUse" x1="47.1363" y1="81.18" x2="120.8935" y2="13.3801">
			<stop  offset="0.2537" style="stop-color:#FFFDE7"/>
			<stop  offset="1" style="stop-color:#FFFDE7;stop-opacity:0"/>
		</linearGradient>
		<path style="fill:url(#SVGID_3_);" d="M114.43,12.88C62.41,30.29,41,73.56,41,73.56L61.23,90.2c0,0,4.5-20.25,18.05-41.77
			c10.98-17.43,28.3-28.56,35.99-33.86C116.18,13.95,115.48,12.53,114.43,12.88z"/>
		<g>
			<linearGradient id="SVGID_4_" gradientUnits="userSpaceOnUse" x1="85.6579" y1="12.3247" x2="68.6853" y2="95.5714">
				<stop  offset="5.221225e-03" style="stop-color:#4453AB;stop-opacity:0"/>
				<stop  offset="1" style="stop-color:#3949AB"/>
			</linearGradient>
			<path style="fill:url(#SVGID_4_);" d="M75.24,67.39c0.3-5.04,3.11-17.44,3.11-17.44c0.73-4.1-3-5.1-5.53-3.82
				c-7.19,3.64-14.83,8.76-19.53,9.16c-5.6,0.48-6.26-5.54-6.18-8.76c-5.28,6.58-9.73,14.07-12.96,22.61l40.47,22.92
				c12.84-33.36,31.71-56.03,47.83-70.59l1.55-1.38v-2.36C100.89,34.07,89.35,52.73,82.63,62.5C78.38,68.67,75,71.4,75.24,67.39z"/>
		</g>
	</g>
	<g>
		<path style="fill:#FDD835;" d="M29.58,49.88L46.36,60.7c1.29,0.83,2.92,0.89,4.27,0.17l17.25-9.32c2.02-0.95,4.25,0.82,3.78,3
			L66.2,72.98c-0.44,1.49-0.02,3.1,1.09,4.19L81.9,91.5c1.53,1.63,0.53,4.3-1.69,4.52l-19.72,1.09c-1.51,0.08-2.87,0.98-3.54,2.34
			l-8.71,17.73c-1.07,1.96-3.92,1.83-4.82-0.21l-7.48-19.05c-0.57-1.45-1.89-2.46-3.43-2.64L13.42,93.1
			c-2.19-0.42-2.95-3.16-1.29-4.65l15.32-12.24c1.2-0.96,1.78-2.49,1.52-4l-3.41-19.67C25.27,50.33,27.65,48.76,29.58,49.88z"/>
		<g>
			<path style="fill:#FFFF8D;" d="M39.79,66.36l-8.57-10.49c-0.46-0.6-1.3-1.58-0.29-2.25c0.8-0.53,2.32,0.84,2.32,0.84l9.36,6.77
				c3.56,2.58,3.8,4.11,3.03,5.62C44.74,68.6,42.24,69.36,39.79,66.36z"/>
		</g>
		<g>
			<path style="fill:#F4B400;" d="M64.23,72.85l4.71-14.05c0.22-0.72,0.66-1.94-0.52-2.21c-0.93-0.21-1.88,1.6-1.88,1.6l-6.32,8.98
				c-1.96,2.56-2.79,4.98-1.85,6.72C59.63,76.2,62.7,76.59,64.23,72.85z"/>
		</g>
	</g>
	<g>
		<path style="fill-rule:evenodd;clip-rule:evenodd;fill:#FFF176;" d="M118.09,63.75c-3.13-1.04-5.56-3.6-6.45-6.78
			c-0.12-0.44-0.71-0.45-0.85-0.02c-1.03,3.15-3.57,5.59-6.76,6.49c-0.41,0.12-0.42,0.68-0.02,0.81c3.14,1.04,5.57,3.59,6.45,6.76
			c0.12,0.44,0.71,0.45,0.85,0.02c1.03-3.14,3.57-5.58,6.75-6.47C118.48,64.45,118.49,63.89,118.09,63.75z"/>
		<path style="fill-rule:evenodd;clip-rule:evenodd;fill:#FFF9C4;" d="M42.71,30.83c-2.26-0.75-4.01-2.59-4.64-4.88
			c-0.09-0.31-0.51-0.32-0.61-0.01c-0.74,2.27-2.57,4.02-4.87,4.67c-0.29,0.08-0.3,0.49-0.01,0.59c2.26,0.75,4.01,2.59,4.65,4.87
			c0.09,0.32,0.51,0.33,0.61,0.01c0.74-2.26,2.57-4.02,4.86-4.66C42.99,31.33,43,30.92,42.71,30.83z"/>
		<circle style="fill-rule:evenodd;clip-rule:evenodd;fill:#7BAAF7;" cx="12.36" cy="41.85" r="2.41"/>
		<circle style="fill-rule:evenodd;clip-rule:evenodd;fill:#5C6BC0;" cx="59.23" cy="15.07" r="4.77"/>
		<circle style="fill-rule:evenodd;clip-rule:evenodd;fill:#7986CB;" cx="109.42" cy="94.45" r="3.19"/>
		<circle style="fill-rule:evenodd;clip-rule:evenodd;fill:#FFF176;" cx="98.9" cy="80.52" r="2.41"/>
		<circle style="fill-rule:evenodd;clip-rule:evenodd;fill:#FFF176;" cx="19.67" cy="17.48" r="2.41"/>
		<circle style="fill-rule:evenodd;clip-rule:evenodd;fill:#7BAAF7;" cx="69.65" cy="113.47" r="2.41"/>
	</g>
</g>
</svg>
